melody-of-light/img/icons/move.svg

<svg width="36" height="36" viewBox="0 0 36 36" fill="none" xmlns="http://www.w3.org/2000/svg">
<rect width="36" height="36" rx="18" fill="white" fill-opacity="0.7"/>
<path d="M20.5007 11.3333H24.6673M24.6673 11.3333V15.4999M24.6673 11.3333L18.0007 17.9999M11.334 24.6666V20.4999M11.334 24.6666H15.5007M11.334 24.6666L18.0007 17.9999M18.0007 17.9999L24.6673 24.6666M18.0007 17.9999L11.334 11.3333M24.6673 24.6666V20.4999M24.6673 24.6666H20.5007M11.334 11.3333H15.5007M11.334 11.3333V15.4999" stroke="#212123" stroke-width="1.2" stroke-linecap="round" stroke-linejoin="round"/>
</svg>

<svg width="36" height="36" fill="none" xmlns="http://www.w3.org/2000/svg"><rect width="36" height="36" rx="18" fill="#fff" fill-opacity=".7"/><path d="M20.5 11.333h4.167m0 0V15.5m0-4.167L18.001 18m-6.667 6.667V20.5m0 4.167h4.167m-4.167 0L18.001 18m0 0l6.666 6.667M18.001 18l-6.667-6.667m13.333 13.334V20.5m0 4.167h-4.166m-9.167-13.334h4.167m-4.167 0V15.5" stroke="#212123" stroke-width="1.2" stroke-linecap="round" stroke-linejoin="round"/></svg>
